Adwaita++/actions/22/go-next.svg

<svg height="22" width="22" xmlns="http://www.w3.org/2000/svg">
  <path d="m2 9h8l-3.5 3.5 1.5 1.5 6-6-6-6-1.5 1.5 3.5 3.5h-8z" fill="#444" transform="translate(3 3)"/>
</svg>

<svg xmlns="http://www.w3.org/2000/svg" width="22" height="22" version="1.1">
 <defs>
  <style id="current-color-scheme" type="text/css">
   .ColorScheme-Text { color:#444444; } .ColorScheme-Highlight { color:#4285f4; }
  </style>
 </defs>
 <g transform="matrix(1,0,0,1,3,3)">
  <path class="ColorScheme-Text" d="M 2,9 H 10 L 6.5,12.5 8,14 14,8 8,2 6.5,3.5 10,7 H 2 Z" style="fill:currentColor"/>
 </g>
</svg>
